X: 21052
T: Jumpy
R: jig
M: 6/8
K: Amixolydian
|:f2A ABA|g2f ede|f2A ABA|dfe dBA|
f2A ABA|g2f efg|a2g f2e|dfe dBA:|
|:fAA eAA|fAA ede|fAA eAA|dfe dBA|
fAA eAA|fAA efg|a2g f2e|dfe dBA:|

